X:1
T:Tantum ergo
T:Déodat de Sévérac (1872 - 1921)
T:Tantum ergo
C:Déodat de Sévérac
C:(1872 - 1921)
%%score [ ( 1 2 ) ( 3 4 ) ]
L:1/8
Q:1/4=60
M:4/4
K:C
V:1 treble nm="P1" snm="S A"
V:2 treble 
V:3 bass nm="P2" snm="T B"
V:4 bass 
V:1
 A3 G (AB) G2 | (Ac)(BA) G2 A2 | c3 A B2 (AB) | (cB)(cd) e4 | e3 d e3 d | (df)(ed) (cA) c2 | %6
w: Ge- ni- to- * ri|ge- * ni- * to- que|laus et ju- bi- *|la- * ti- * o,|sa- lus- ho- nor|vir- * tus * quo- * que|
w: ||||||
w: Tan- tum er- * go|sa- * cra- * men- tum|ve- ne- re- mur *|cer- * nu- * i,|et an- ti- quum|do- * cu- * men- * tum|
 B3 A B3 A | A3 A G4 | A2 (_BG) A2 (Bc) | A2 (=B^c) (de) A2 | E3 E (G2 ^F)F | (^F E2) E (F2 ^G2) :| %12
w: sit et be- ne-|dic- ti- o.|Pro- ce- * den- ti *|ab u- * tro- * que|com- par sit * lau-|da- * ti- o. *|
w: ||||||
w: no- vo ce- dat|ri- tu- i.|Prae- stet * fi- des *|sup- ple- * men- * tum|sen- su- um * de-|fe- * ctu- i. *|
 A3 =G AB G2 | AcBA G2 AB | cedc BA ^G2 | A8 |] %16
w: ||||
w: A- * * * *|||men.|
w: ||||
V:2
 E2 D2 E2 (DE) | F2 F2 (DE) F2 | (GFG)A (AG) F2 | A2 A2 (A2 ^G2) | (A_B) A2 =G2 F2 | %5
 (FA)(GF) (ED) E2 | (E^D) E2 G2 G2 | (FE=D)F (FD E2) | E2 G2 E2 G2 | F2 G2 (AG) F2 | C3 C A,3 A, | %11
 C3 C (A,2 E2) :| E2 D2 E2 DE | F4 DE F2 | G2 A2 F2 ED | E8 |] %16
V:3
 C2 B,2 C2 B,2 | (CE)(DC) (CB,) C2 | C3 E D2 D2 | E2 (A,B,) B,4 | ^C3 D (A,_B,) A,2 | %5
 (A,=B,)(=CG,) (G,F,) G,2 | (G,A,) B,2 (^CD) E2 | A,3 B, =C4 | ^C2 D2 C2 D2 | ^C2 (DE) (FE) D2 | %10
 A,3 A, =C3 C | A,3 A, (C2 B,2) :| %12
"^Let us venerate this great sacrament with bowed heads:      Praise and rejoicing, safety and honour,let the ancient example give way to a new rite.                     virtue and blessing to the begetter and the begotton.Let faith make good the insufficiency of our senses.          To him who comes from either be there equal praise. Amen." C2 B,2 C2 B,2 | %13
 CEDC CB,CD | CGFE DC B,2 | C8 |] %16
V:4
 A,2 A,2 (A,G,)(F,E,) | D,3 F, G,2 F,2 | (E,D,E,)F, (G,B,) D2 | (A,G,) F,2 E,4 | %4
 (A,G,) F,2 ^C,2 D,2 | (G,G,,)(A,,B,,) =C,2 (C,D,) | (E,^F,) G,2 (A,,B,,) ^C,2 | (D,E,=F,)G, =C,4 | %8
 (A, G,2) E, (A, G,2) E, | (A,G,)(F,E,) D,2 D,2 | (A,G,^F,)E, (E, ^D,2) D, | %11
 (E,G,^F,)E, (E,^D, E,2) :| A,2 A,,2 A,G,=F,E, | D,3 F, G,2 F,2 | E,C,F,A, D,2 E,2 | [A,,A,]8 |] %16

